tools/download-figma-icons/icons/outlined-large/globus.svg

<svg width="64" height="64" viewBox="0 0 64 64" fill="none" xmlns="http://www.w3.org/2000/svg">
<path fill-rule="evenodd" clip-rule="evenodd" d="M44.3003 12.2318L51.7482 16.9307C48.8372 8.82487 41.0954 2.99995 31.9995 2.99995C31.1155 2.99995 30.2495 3.07295 29.3945 3.17995L32.7795 8.71787C32.9235 8.95286 32.9995 9.22386 32.9995 9.49986V13.7298L43.2523 12.0208C43.6143 11.9598 43.9893 12.0348 44.3003 12.2318ZM38.9994 33.6435L43.4273 41.5934C46.7893 39.4024 49.4802 36.2784 51.1432 32.5875L46.9453 28.9996H38.9994V33.6435ZM29.9995 36.4994V44.8983C30.6585 44.9603 31.3245 44.9993 31.9995 44.9993C35.1445 44.9993 38.1184 44.2843 40.8004 43.0403L36.1884 34.7625C36.0644 34.5395 35.9994 34.2885 35.9994 34.0335V27.4996C35.9994 26.6716 36.6714 25.9996 37.4994 25.9996H47.4993C47.8563 25.9996 48.2023 26.1276 48.4743 26.3596L52.2272 29.5665C52.7162 27.7906 52.9992 25.9296 52.9992 23.9996C52.9992 23.0236 52.9092 22.0707 52.7792 21.1287L43.1823 15.0738L31.7465 16.9797C31.3085 17.0517 30.8675 16.9297 30.5295 16.6447C30.1935 16.3598 29.9995 15.9418 29.9995 15.4998V9.92185L26.2676 3.81594C21.3717 5.20892 17.2007 8.32587 14.4628 12.4788L23.3176 18.2427C23.7426 18.5197 23.9996 18.9927 23.9996 19.4997V30.7975L29.4595 35.3475C29.8025 35.6325 29.9995 36.0544 29.9995 36.4994ZM13.0038 15.1078C11.7308 17.8127 10.9998 20.8187 10.9998 23.9996C10.9998 33.8535 17.8307 42.1204 26.9996 44.3723V37.2014L21.5397 32.6525C21.1967 32.3675 20.9997 31.9455 20.9997 31.4995V20.3137L13.0038 15.1078ZM31.9995 47.9993C18.7667 47.9993 7.99987 37.2334 7.99987 23.9996C7.99987 12.6818 15.8787 3.17395 26.4376 0.65799C26.5486 0.617991 26.6606 0.593991 26.7736 0.579991C28.4576 0.203997 30.2045 0 31.9995 0C45.2323 0 55.9991 10.7668 55.9991 23.9996C55.9991 37.2334 45.2323 47.9993 31.9995 47.9993ZM31.966 50.833C39.6429 50.833 46.7398 48.1371 51.4387 43.4391C52.0247 42.8531 52.9737 42.8531 53.5597 43.4391C54.1457 44.0251 54.1457 44.9741 53.5597 45.5601C48.6147 50.505 41.3569 53.465 33.466 53.799V60.9999H41.4999C42.3278 60.9999 42.9998 61.6709 42.9998 62.4998C42.9998 63.3278 42.3278 63.9998 41.4999 63.9998H22.5001C21.6712 63.9998 21.0002 63.3278 21.0002 62.4998C21.0002 61.6709 21.6712 60.9999 22.5001 60.9999H30.466V53.794C14.6373 53.01 2.00046 39.8862 2.00046 23.8664C2.00046 15.6126 5.07641 7.80268 10.4393 2.43976C11.0253 1.85377 11.9743 1.85377 12.5603 2.43976C13.1463 3.02575 13.1463 3.97474 12.5603 4.56073C7.75537 9.36566 5.00041 16.4025 5.00041 23.8664C5.00041 38.7352 17.0972 50.833 31.966 50.833Z" fill="black"/>
</svg>

<svg xmlns="http://www.w3.org/2000/svg" width="64" height="64" fill="none" viewBox="0 0 64 64"><path fill="currentColor" fill-rule="evenodd" d="m44.3 12.232 7.448 4.699C48.838 8.825 41.095 3 32 3c-.884 0-1.75.073-2.605.18l3.384 5.538c.144.235.22.506.22.782v4.23l10.253-1.71c.362-.06.737.015 1.048.212M39 33.644l4.427 7.95a21.1 21.1 0 0 0 7.716-9.007L46.945 29H39zm-9 2.855v8.4c.659.061 1.325.1 2 .1a20.85 20.85 0 0 0 8.8-1.959l-4.612-8.277a1.5 1.5 0 0 1-.189-.73V27.5a1.5 1.5 0 0 1 1.5-1.5h10c.357 0 .703.128.975.36l3.753 3.207A21 21 0 0 0 53 24c0-.976-.09-1.93-.22-2.871l-9.597-6.055-11.436 1.906A1.502 1.502 0 0 1 30 15.5V9.922l-3.732-6.106a21.06 21.06 0 0 0-11.805 8.663l8.855 5.764c.425.277.682.75.682 1.257v11.298l5.46 4.55c.342.285.54.706.54 1.151M13.004 15.108A20.8 20.8 0 0 0 11 24c0 9.853 6.83 18.12 16 20.372v-7.17l-5.46-4.55A1.5 1.5 0 0 1 21 31.5V20.314zM32 47.999C18.767 48 8 37.233 8 24 8 12.683 15.879 3.175 26.438.659q.166-.059.336-.078A24 24 0 0 1 32 0c13.232 0 24 10.767 24 24S45.231 48 32 48m-.034 2.834c7.677 0 14.774-2.696 19.473-7.394a1.5 1.5 0 1 1 2.12 2.121c-4.944 4.945-12.202 7.905-20.093 8.239V61H41.5a1.5 1.5 0 1 1 0 3h-19a1.5 1.5 0 1 1 0-3h7.966v-7.205C14.637 53.01 2 39.886 2 23.866 2 15.613 5.076 7.803 10.44 2.44a1.5 1.5 0 1 1 2.12 2.12C7.755 9.367 5 16.404 5 23.867c0 14.87 12.097 26.967 26.966 26.967" clip-rule="evenodd"/></svg>
